icons/linear-ele-arrow-down-right.svg

<svg xmlns="http://www.w3.org/2000/svg" width="32px" height="32px" viewBox="0 0 32 32" version="1.1">
    <title>linear-ele-arrow-down-right</title>
    <g id="linear-ele-arrow-down-right" stroke-width="1" fill-rule="evenodd">
        <path d="M8.20710678,6.79289322 L24,22.585 L24,10.5 C24,9.98716416 24.3860402,9.56449284 24.8833789,9.50672773 L25,9.5 C25.5522847,9.5 26,9.94771525 26,10.5 L25.9972121,25.0752385 L25.9797599,25.2007258 L25.9502619,25.3121425 L25.9063266,25.4232215 L25.8540045,25.5207088 L25.7870723,25.6170223 L25.7070891,25.7071408 C25.6717127,25.7425008 25.6343256,25.774687 25.5953066,25.8036654 L25.4840621,25.8753288 L25.371336,25.9287745 L25.265993,25.9641549 L25.1174742,25.9931658 L25,26 L10.5,26 C9.94771525,26 9.5,25.5522847 9.5,25 C9.5,24.4477153 9.94771525,24 10.5,24 L22.585,24 L6.79289322,8.20710678 C6.40236893,7.81658249 6.40236893,7.18341751 6.79289322,6.79289322 C7.18341751,6.40236893 7.81658249,6.40236893 8.20710678,6.79289322 Z" id="&#36335;&#24452;" fill-rule="nonzero" />
    </g>
</svg>

<svg xmlns="http://www.w3.org/2000/svg" viewBox="0 0 32 32"><path fill="currentColor" d="M8.207 6.793 24 22.585V10.5a1 1 0 0 1 .883-.993L25 9.5a1 1 0 0 1 1 1l-.003 14.575-.017.126-.03.111-.044.111-.052.098-.067.096-.08.09a1.01 1.01 0 0 1-.112.097l-.11.071-.114.054-.105.035-.149.03L25 26H10.5a1 1 0 0 1 0-2h12.085L6.793 8.207a1 1 0 0 1 1.414-1.414"/></svg>
